assets/img/braze_icons/info-circle.svg

<svg fill="none" height="24" viewBox="0 0 24 24" width="24" xmlns="http://www.w3.org/2000/svg"><path clip-rule="evenodd" d="m12 1c-6.07513 0-11 4.92487-11 11 0 6.0751 4.92487 11 11 11 6.0751 0 11-4.9249 11-11 0-6.07513-4.9249-11-11-11zm0 6c-.5523 0-1 .44772-1 1s.4477 1 1 1h.01c.5523 0 1-.44772 1-1s-.4477-1-1-1zm1 5c0-.5523-.4477-1-1-1s-1 .4477-1 1v4c0 .5523.4477 1 1 1s1-.4477 1-1z" fill="#801ed7" fill-rule="evenodd"/></svg>

<svg width="24" height="24" viewBox="0 0 24 24" fill="none" xmlns="http://www.w3.org/2000/svg">
<path fill-rule="evenodd" clip-rule="evenodd" d="M12 1C5.92487 1 1 5.92487 1 12C1 18.0751 5.92487 23 12 23C18.0751 23 23 18.0751 23 12C23 5.92487 18.0751 1 12 1ZM12 7C11.4477 7 11 7.44772 11 8C11 8.55228 11.4477 9 12 9H12.01C12.5623 9 13.01 8.55228 13.01 8C13.01 7.44772 12.5623 7 12.01 7H12ZM13 12C13 11.4477 12.5523 11 12 11C11.4477 11 11 11.4477 11 12V16C11 16.5523 11.4477 17 12 17C12.5523 17 13 16.5523 13 16V12Z" fill="#801ED7"/>
</svg>
